images/cart.svg

<svg width="24" height="24" viewBox="0 0 24 24" fill="none" xmlns="http://www.w3.org/2000/svg">
<path d="M23.9965 15.5817C23.9935 14.8622 23.7505 14.16 23.299 13.566C22.8474 12.972 22.208 12.5134 21.4635 12.2496L23.9565 3.85947C24.0085 3.68078 24.014 3.4937 23.9724 3.31281C23.9307 3.13192 23.8432 2.96213 23.7165 2.8167C23.587 2.68042 23.4252 2.572 23.2429 2.4994C23.0606 2.42679 22.8626 2.39187 22.6633 2.39719H4.39935L3.95941 0.886968C3.88293 0.631561 3.71462 0.406075 3.48072 0.245645C3.24682 0.0852141 2.96046 -0.00114929 2.66627 1.15513e-05H0V2.39719H1.63976L4.94594 13.4961C5.02406 13.7576 5.19835 13.9876 5.44043 14.1487C5.6825 14.3097 5.9781 14.3924 6.27907 14.3831H19.997C20.3506 14.3831 20.6897 14.5094 20.9397 14.7341C21.1897 14.9589 21.3302 15.2638 21.3302 15.5817C21.3302 15.8996 21.1897 16.2044 20.9397 16.4292C20.6897 16.654 20.3506 16.7803 19.997 16.7803H2.66627C2.3127 16.7803 1.97361 16.9065 1.7236 17.1313C1.47359 17.3561 1.33314 17.661 1.33314 17.9789C1.33314 18.2967 1.47359 18.6016 1.7236 18.8264C1.97361 19.0512 2.3127 19.1774 2.66627 19.1774H4.23937C4.02012 19.7206 3.94967 20.3032 4.03398 20.876C4.11829 21.4488 4.35488 21.9949 4.72373 22.468C5.09257 22.9411 5.5828 23.3274 6.15289 23.5941C6.72299 23.8608 7.35617 24 7.99882 24C8.64146 24 9.27464 23.8608 9.84474 23.5941C10.4148 23.3274 10.9051 22.9411 11.2739 22.468C11.6428 21.9949 11.8793 21.4488 11.9637 20.876C12.048 20.3032 11.9775 19.7206 11.7583 19.1774H14.9045C14.7049 19.672 14.6284 20.1999 14.6805 20.7239C14.7326 21.2479 14.9119 21.7553 15.2058 22.2102C15.4997 22.6651 15.9011 23.0564 16.3816 23.3567C16.8621 23.6569 17.4101 23.8587 17.9868 23.9478C18.5635 24.0369 19.1549 24.0111 19.7193 23.8723C20.2837 23.7335 20.8074 23.485 21.2533 23.1444C21.6993 22.8038 22.0567 22.3793 22.3003 21.901C22.5439 21.4227 22.6679 20.9021 22.6633 20.376C22.6608 19.7568 22.4769 19.1491 22.1301 18.6141C22.7001 18.291 23.1701 17.8435 23.4964 17.3134C23.8227 16.7833 23.9947 16.1876 23.9965 15.5817ZM18.7839 11.9859H7.33225L5.11924 4.79437H20.9302L18.7839 11.9859ZM7.99882 21.5746C7.73515 21.5746 7.4774 21.5043 7.25817 21.3726C7.03893 21.2409 6.86806 21.0537 6.76716 20.8347C6.66626 20.6157 6.63986 20.3747 6.6913 20.1422C6.74274 19.9097 6.86971 19.6961 7.05615 19.5285C7.24259 19.3609 7.48013 19.2467 7.73874 19.2005C7.99734 19.1542 8.26539 19.178 8.50899 19.2687C8.75259 19.3594 8.96079 19.513 9.10728 19.7101C9.25377 19.9072 9.33195 20.139 9.33195 20.376C9.33195 20.6939 9.1915 20.9988 8.94149 21.2236C8.69148 21.4483 8.35239 21.5746 7.99882 21.5746ZM18.6639 21.5746C18.4002 21.5746 18.1425 21.5043 17.9233 21.3726C17.704 21.2409 17.5332 21.0537 17.4323 20.8347C17.3314 20.6157 17.305 20.3747 17.3564 20.1422C17.4078 19.9097 17.5348 19.6961 17.7212 19.5285C17.9077 19.3609 18.1452 19.2467 18.4038 19.2005C18.6624 19.1542 18.9305 19.178 19.1741 19.2687C19.4177 19.3594 19.6259 19.513 19.7724 19.7101C19.9189 19.9072 19.997 20.139 19.997 20.376C19.997 20.6939 19.8566 20.9988 19.6066 21.2236C19.3566 21.4483 19.0175 21.5746 18.6639 21.5746Z" fill="#403148"/>
</svg>

<svg width="24" height="24" fill="none" xmlns="http://www.w3.org/2000/svg"><path d="M23.997 15.582a3.349 3.349 0 0 0-.698-2.016 3.955 3.955 0 0 0-1.835-1.316l2.492-8.39c.053-.18.058-.366.016-.547-.041-.181-.129-.35-.256-.496a1.332 1.332 0 0 0-.473-.318 1.464 1.464 0 0 0-.58-.102H4.4L3.96.887a1.2 1.2 0 0 0-.478-.641A1.434 1.434 0 0 0 2.666 0H0v2.397h1.64l3.306 11.1c.078.26.252.49.494.652.242.16.538.243.84.234h13.717c.354 0 .693.126.943.351.25.225.39.53.39.848 0 .318-.14.622-.39.847-.25.225-.59.351-.943.351H2.667c-.354 0-.693.127-.943.351-.25.225-.39.53-.39.848 0 .318.14.623.39.847.25.225.589.351.942.351H4.24a3.257 3.257 0 0 0-.205 1.699c.084.573.32 1.119.69 1.592.369.473.859.86 1.429 1.126.57.267 1.203.406 1.846.406.642 0 1.276-.14 1.846-.406a3.903 3.903 0 0 0 1.429-1.126c.369-.473.605-1.02.69-1.592a3.258 3.258 0 0 0-.206-1.699h3.147a3.26 3.26 0 0 0-.224 1.547c.052.524.23 1.031.525 1.486.294.455.695.846 1.176 1.147.48.3 1.028.502 1.605.59.577.09 1.168.064 1.732-.075a4.166 4.166 0 0 0 1.534-.728c.446-.34.804-.765 1.047-1.243.244-.478.368-.999.363-1.525a3.258 3.258 0 0 0-.533-1.762 3.79 3.79 0 0 0 1.366-1.3c.327-.53.499-1.126.5-1.732zm-5.213-3.596H7.332L5.12 4.794H20.93l-2.146 7.192zM7.999 21.575c-.264 0-.522-.07-.74-.202a1.236 1.236 0 0 1-.492-.538c-.1-.22-.127-.46-.076-.693.052-.232.179-.446.365-.613.187-.168.424-.282.683-.328.258-.047.526-.023.77.068.244.09.452.244.598.441.147.197.225.429.225.666 0 .318-.14.623-.39.848-.25.224-.59.35-.943.35zm10.665 0c-.264 0-.522-.07-.74-.202a1.236 1.236 0 0 1-.492-.538c-.1-.22-.127-.46-.076-.693.052-.232.179-.446.365-.613.187-.168.424-.282.683-.328.258-.047.526-.023.77.068.244.09.452.244.598.441.147.197.225.429.225.666 0 .318-.14.623-.39.848-.25.224-.59.35-.943.35z" fill="#403148"/></svg>
